symbols-de/shields/motorway_7x1_z16.svg

<?xml version="1.0" encoding="UTF-8" standalone="no"?>
<svg
   xmlns:dc="http://purl.org/dc/elements/1.1/"
   xmlns:cc="http://creativecommons.org/ns#"
   xmlns:rdf="http://www.w3.org/1999/02/22-rdf-syntax-ns#"
   xmlns:svg="http://www.w3.org/2000/svg"
   xmlns="http://www.w3.org/2000/svg"
   xmlns:sodipodi="http://sodipodi.sourceforge.net/DTD/sodipodi-0.dtd"
   xmlns:inkscape="http://www.inkscape.org/namespaces/inkscape"
   width="100%"
   height="100%"
   viewBox="0 0 55.0 16.0"
   id="svg2"
   version="1.1"
   inkscape:version="0.91 r13725"
   sodipodi:docname="autobahn_7x1_z16.svg">
  <metadata
     id="metadata9">
    <rdf:RDF>
      <cc:Work
         rdf:about="">
        <dc:format>image/svg+xml</dc:format>
        <dc:type
           rdf:resource="http://purl.org/dc/dcmitype/StillImage" />
        <dc:title></dc:title>
      </cc:Work>
    </rdf:RDF>
  </metadata>
  <defs
     id="defs7" />
  <sodipodi:namedview
     pagecolor="#ffffff"
     bordercolor="#666666"
     borderopacity="1"
     objecttolerance="10"
     gridtolerance="10"
     guidetolerance="10"
     inkscape:pageopacity="0"
     inkscape:pageshadow="2"
     inkscape:window-width="761"
     inkscape:window-height="569"
     id="namedview5"
     showgrid="false"
     inkscape:zoom="6.4181818"
     inkscape:cx="27.5"
     inkscape:cy="8"
     inkscape:window-x="307"
     inkscape:window-y="370"
     inkscape:window-maximized="0"
     inkscape:current-layer="svg2" />
  <path
     inkscape:connector-curvature="0"
     style="fill:#365eaf;fill-opacity:1;stroke:#0528a2;stroke-width:1;stroke-miterlimit:4;stroke-dasharray:none;stroke-opacity:1"
     id="path6"
     d="m 0.5,8.0000429 0,-5.1818258 Q 0.5,2.5454869 1.3709664,2.409126 L 26.919349,0.513671 q 0,-0.01367 0.580649,-0.01367 0.580644,0 0.580644,0.01367 L 53.62903,2.409126 Q 54.5,2.5454869 54.5,2.8182171 l 0,10.3636559 q 0,0.272731 -0.87097,0.409091 l -25.548388,1.89545 q 0,0.01359 -0.580644,0.01359 -0.580649,0 -0.580649,-0.01359 L 1.3709664,13.590964 Q 0.5,13.454604 0.5,13.181873 Z" />
</svg>

<?xml version="1.0" encoding="UTF-8"?>
<svg xmlns="http://www.w3.org/2000/svg" xmlns:xlink="http://www.w3.org/1999/xlink" width="52pt" height="20pt" viewBox="0 0 52 20" version="1.1">
<g id="surface1">
<path style="fill-rule:nonzero;fill:rgb(21.176471%,36.862745%,68.627451%);fill-opacity:1;stroke-width:1;stroke-linecap:butt;stroke-linejoin:miter;stroke:rgb(1.960784%,15.686275%,63.529412%);stroke-opacity:1;stroke-miterlimit:4;" d="M 0.499925 8 L 0.499925 2.81875 C 0.499925 2.6375 0.789138 2.5 1.371695 2.409375 L 26.917443 0.5125 C 26.917443 0.503125 27.111629 0.5 27.5 0.5 C 27.888371 0.5 28.082557 0.503125 28.082557 0.5125 L 53.628305 2.409375 C 54.210862 2.5 54.500075 2.6375 54.500075 2.81875 L 54.500075 13.18125 C 54.500075 13.3625 54.210862 13.5 53.628305 13.590625 L 28.082557 15.4875 C 28.082557 15.496875 27.888371 15.5 27.5 15.5 C 27.111629 15.5 26.917443 15.496875 26.917443 15.4875 L 1.371695 13.590625 C 0.789138 13.5 0.499925 13.3625 0.499925 13.18125 Z M 0.499925 8 " transform="matrix(0.945455,0,0,1.25,0,0)"/>
</g>
</svg>
